X: 4641
T: Boxiana
R: jig
M: 6/8
K: Gmajor
|:B/c/d|g2 d B2 d|e2 c gfe|ded dcB|BA^G Ad/e/f|
gdd BGd|ece gfe|d2 d cBA|1 GBA G:|2 G3- G||
|:G/A/B|c2 A ABc|BGd BGD|c2 A AA/B/c|BGd BGg|
fgg e2 g|dgg c2 g|f^ef dd/=e/f|1 g3 d:|2 g3- g||

